images/grid-view.svg

<svg width="16" height="16" viewBox="0 0 16 16" fill="none" xmlns="http://www.w3.org/2000/svg">
<path d="M13.333 1.33331H2.66634C1.92996 1.33331 1.33301 1.93027 1.33301 2.66665V13.3333C1.33301 14.0697 1.92996 14.6666 2.66634 14.6666H13.333C14.0694 14.6666 14.6663 14.0697 14.6663 13.3333V2.66665C14.6663 1.93027 14.0694 1.33331 13.333 1.33331Z" stroke="#6A983C" stroke-linecap="round" stroke-linejoin="round"/>
<path d="M1.33301 8H14.6663" stroke="#6A983C" stroke-linecap="round" stroke-linejoin="round"/>
<path d="M8 1.33331V14.6666" stroke="#6A983C" stroke-linecap="round" stroke-linejoin="round"/>
</svg>

<svg width="16" height="16" fill="none" xmlns="http://www.w3.org/2000/svg"><path d="M13.333 1.333H2.666c-.736 0-1.333.597-1.333 1.334v10.666c0 .737.597 1.334 1.333 1.334h10.667c.736 0 1.333-.597 1.333-1.334V2.667c0-.737-.597-1.334-1.333-1.334ZM1.333 8h13.333M8 1.333v13.334" stroke="#6A983C" stroke-linecap="round" stroke-linejoin="round"/></svg>
